X: 1
T:Flee the Glen  "CYMRU"
M:6/8
L:1/8
Q:80
C:Robert Mathieson
S:Jig
K:HP
|: | {g}fB{G}B{g}Bcd|
{g}c2e{g}ece|
{g}fB{G}B{g}Bcd|  !
{g}A2{d}c-c{g}e2| |
{g}fB{G}B{g}Bcd|
{g}ce{A}e{g}ec{d}A|  !
{g}dcB{g}Bcd|
{g}fB|1 {G}B-B{g}cd|2 {G}B-B3:| |:
| {g}fgf{g}fed|  !
{g}e2{A}e-edc|
{g}ded{g}dcB|
{g}c3-cde|1 |  !
{g}fgf{g}e2c|
{g}ded{g}c3|
{g}dcB{g}Bcd|  !
{g}c2B-B3:|2 |:
| {g}f3e3|
{g}ded{g}c3|  !
{g}dcB{g}Bcd|
{g}ced{g}B3|
